!!!COM: Alban (Maria Johannes) Berg
!!!OTL: [T452_Ber-w14p33m114-121]
**kern	**dynam	**kern	**dynam	**kern	**dynam	**kern	**dynam	**kern	**kern	**dynam	**kern	**text	**dynam	**kern	**dynam	**kern	**dynam	**kern	**dynam	**kern	**dynam
*grp:A	*grp:A	*grp:A	*grp:A	*grp:A	*grp:A	*grp:B	*grp:B	*grp:B	*grp:B	*grp:B	*grp:B	*grp:B	*grp:B	*grp:B	*grp:B	*grp:B	*grp:B	*grp:B	*grp:B	*grp:B	*grp:B
*part10	*part10	*part9	*part9	*part8	*part8	*part7	*part7	*part6	*part6	*part6	*part5	*part5	*part5	*part4	*part4	*part3	*part3	*part2	*part2	*part1	*part1
*staff11	*staff11	*staff10	*staff10	*staff9	*staff9	*staff8	*staff8	*staff7	*staff6	*staff6	*staff5	*staff5	*staff5	*staff4	*staff4	*staff3	*staff3	*staff2	*staff2	*staff1	*staff1
*I"Violoncello 1. Div.	*I"Violoncello 1. Div.	*I"Violin II 2. Div.	*I"Violin II 2. Div.	*I"Violin II 1. Div.	*I"Violin II 1. Div.	*I"Violin I	*I"Violin I	*I"Harp	*I"Harp	*I"Harp	*I"Soprano	*I"Soprano	*I"Soprano	*I"Trumpet I in F	*I"Trumpet I in F	*I"Clarinet I in Bb	*I"Clarinet I in Bb	*I"Flute II	*I"Flute II	*I"Flute I	*I"Flute I
*I'Vc. 1.Div.	*	*I'Vln. II 2.Div.	*	*I'Vln. II 1.Div.	*	*I'Vln. I	*	*I'Hp.	*	*	*I'Sop.	*	*	*I'F Tpt.	*	*I'Bb Cl.	*	*I'2.Fl.	*	*I'1.Fl.	*
!!pagebreak:original
*clefC4	*	*clefG2	*	*clefG2	*	*clefG2	*	*clefF4	*clefG2	*	*clefG2	*	*	*clefG2	*	*clefG2	*	*clefG2	*	*clefG2	*
*	*	*	*	*	*	*	*	*	*	*	*	*	*	*ITrd-3c-5	*	*ITrd1c2	*	*	*	*	*
*k[]	*	*k[]	*	*k[]	*	*k[]	*	*k[]	*k[]	*	*k[]	*	*	*k[b-]	*	*k[b-e-]	*	*k[]	*	*k[]	*
*	*	*	*	*	*	*	*	*	*	*	*	*	*	*	*	*	*	*	*	*	*
*M3/4	*	*M3/4	*	*M3/4	*	*M3/4	*	*M3/4	*M3/4	*	*M9/8	*	*	*M3/4	*	*M3/4	*	*M3/4	*	*M3/4	*
=	=	=	=	=	=	=	=	=	=	=	=	=	=	=	=	=	=	=	=	=	=
!	!	!	!	!	!	!	!	!	!	!	!	!	!	!	!	!	!	!	!	!LO:TX:rj:t=1.	!
*	*	*	*	*	*	*	*	*Xtuplet	*Xtuplet	*	*Xtuplet	*	*	*	*	*	*	*Xtuplet	*	*	*
!	!LO:DY:ed=brack	!	!LO:DY:ed=brack	!	!LO:DY:ed=brack	!	!LO:DY:ed=brack	!	!	!	!	!	!	!LO:TX:a:t=(con sord. sempre)	!	!	!LO:DY:ed=brack	!	!	!LO:TX:a:t=accel.	!
8g-X])	pp >	([2.bn	mf	([2.bn)	mf	(2.gg_	mf	4%3r	4%3r	.	6r	.	.	12r	.	(12e-L	mf >	4%3r	.	(>[2.bb-X\	pp
!	!	!	!	!	!	!	!	!	!	!	!	!	!	!	!LO:DY:t=%s , ma distinto	!	!	!	!	!	!
.	.	.	.	.	.	.	.	.	.	.	.	.	.	[6dd	pp <	12f	.	.	.	.	.
8r	]	.	>	.	>	.	>	.	.	.	.	.	.	.	.	.	.	.	.	.	.
.	.	.	.	.	.	.	.	.	.	.	12r	.	.	.	.	12g-XJ	.	.	.	.	.
4r	.	.	.	.	.	.	.	.	.	.	6r	.	.	12dd]	[[	12a-XL	.	.	.	.	.
*	*	*	*	*	*	*	*	*	*	*	*	*	*	*	*	*Xneben	*	*	*	*	*
.	.	.	.	.	.	.	.	.	.	.	.	.	.	12r	.	12g-X	] p	.	.	.	.
.	.	.	.	.	.	.	.	.	.	.	[12ddn	Wir	p	([12ddN	.	12a-J	]	.	.	.	.
4r	.	.	.	.	.	.	.	.	.	.	6.dd]	.	.	4dd]	[ [ < [	12g-L	.	.	.	.	<
.	.	.	.	.	.	.	.	.	.	.	.	.	.	.	.	12a-	.	.	.	.	.
.	.	.	]]	.	]]	.	]]	.	.	.	.	.	.	.	.	12g-J	<	.	.	.	.
=1	=1	=1	=1	=1	=1	=1	=1	=1	=1	=1	=1	=1	=1	=1	=1	=1	=1	=1	=1	=1	=1
*Xtuplet	*	*	*	*	*	*	*	*	*	*	*	*	*	*	*	*neben	*	*	*	*haupt	*
!	!	!	!	!	!	!	!	!	!	!	!	!	!	!	!	!	!	!	!	!LO:TX:t=Beschwindigtes Tempo ( [half-dot]=44-52 )	!
!	!	!	!	!	!	!	!	!	!	!	!	!	!	!	!LO:DY:t=%s poco espr.	!LO:TX:b:i:t=poco espr.	!	!	!	!LO:TX:b:i:t=espr.	!
4%3r	.	4b_	pp	4b_	pp	12ggL])	.	4%3r	4%3r	.	[6.ee-X	leh-	.	2ee-X	p	2f	.	4%3r	.	2bb-\]	.
*	*	*	*	*	*	*Xhaupt	*	*	*	*	*	*	*	*	*	*Xtuplet	*	*	*	*	*
!	!	!	!	!	!	!	!LO:DY:t=molto %s	!	!	!	!	!	!	!	!	!	!	!	!	!	!
.	.	.	.	.	.	(12Gn	p	.	.	.	.	.	.	.	.	.	.	.	.	.	.
.	.	.	.	.	.	12A-XJ	.	.	.	.	.	.	.	.	.	.	.	.	.	.	[[
.	.	12b])	.	12b])	.	12B-XL	.	.	.	.	12ee-]	.	.	.	.	.	[	.	.	.	.
.	.	[6bn	< [ > ]	[6bn	< [ > ]	12cn	.	.	.	.	[6bn	-nen	.	.	.	.	.	.	.	.	.
.	.	.	.	.	.	12d-XJ	.	.	.	.	.	.	.	.	.	.	.	.	.	.	>
.	.	4r	.	4r	.	12anL	.	.	.	.	6b]	.	.	[4g	>	4eX)	>	.	.	4dd-X\),	.
.	.	.	.	.	.	12bn	.	.	.	.	.	.	.	.	.	.	.	.	.	.	.
.	.	.	.	.	.	12anJ	.	.	.	.	[12gn	uns	.	.	.	.	]]	.	.	.	]]
=2	=2	=2	=2	=2	=2	=2	=2	=2	=2	=2	=2	=2	=2	=2	=2	=2	=2	=2	=2	=2	=2
*	*	*Xtuplet	*	*Xtuplet	*	*	*	*	*	*	*	*	*	*	*	*	*	*	*	*	*
4%3r	.	4%3r	.	4%3r	.	12ee-XL	.	4%3r	4%3r	.	6.g]	.	.	4g])	]	4%3r	.	(2ffn	p <	(2bb-X	p <
.	.	.	.	.	.	12ddn	.	.	.	.	.	.	.	.	.	.	.	.	.	.	.
.	.	.	.	.	.	12ee-XJ	.	.	.	.	.	.	.	.	.	.	.	.	.	.	.
.	.	.	.	.	.	12ddnL	.	.	.	.	[6.a-X	weich	.	([4a-XN	.	.	.	.	[	.	[
.	.	.	.	.	.	12bn	.	.	.	.	.	.	.	.	.	.	.	.	.	.	.
.	.	.	.	.	.	12f#XJ	.	.	.	.	.	.	.	.	.	.	.	.	>	.	>
.	.	.	.	.	.	12d#XL	.	.	.	.	12a-]	.	.	12a-]	.	.	.	4g-X)	.	4dd-X)	.
.	.	.	.	.	.	12cn	.	.	.	.	[6an	auf	.	[6aN	.	.	.	.	.	.	.
.	.	.	.	.	.	12BnJ	.	.	.	.	.	.	.	.	.	.	.	.	]	.	]
=3	=3	=3	=3	=3	=3	=3	=3	=3	=3	=3	=3	=3	=3	=3	=3	=3	=3	=3	=3	=3	=3
4%3r	.	4%3r	.	4%3r	.	12cnL	.	4%3r	4%3r	.	6a]	.	.	6a]	.	(4g	p <	(4een	<	(4bb-X	<
.	.	.	.	.	.	12dn	.	.	.	.	.	.	.	.	.	.	[[	.	[[	.	[[
.	.	.	.	.	.	12cJ	.	.	.	.	[12b-X	den	.	[12b-	< [ >	.	>	.	>	.	>
.	.	.	.	.	.	12dL	.	.	.	.	6.b-]	.	.	4b-]	]	8.eX)	]	8.a-X)	]	8.dd-X)	]
.	.	.	.	.	.	12c	.	.	.	.	.	.	.	.	.	.	.	.	.	.	.
.	.	.	.	.	.	12e-XJ	.	.	.	.	.	.	.	.	.	.	.	.	.	.	.
.	.	.	.	.	.	.	.	.	.	.	.	.	.	.	.	16r	.	16r	.	16r	.
.	.	.	.	.	.	12fnL	.	.	.	.	[6.ccn	Flü-	.	[4cc	>	(4g	] < [	(4b-X	< [	(4ccn	<
.	.	.	.	.	.	12dn	.	.	.	.	.	.	.	.	.	.	.	.	.	.	[
.	.	.	.	.	.	12e-XJ	.	.	.	.	.	.	.	.	.	.	.	.	.	.	> ]
!!pagebreak:original
=4	=4	=4	=4	=4	=4	=4	=4	=4	=4	=4	=4	=4	=4	=4	=4	=4	=4	=4	=4	=4	=4
!	!	!LO:TX:a:t=pizz.	!	!LO:TX:a:t=pizz.	!	!	!	!	!	!	!	!	!	!	!	!	!	!	!	!	!
*	*	*	*	*	*	*	*	*	*	*	*	*	*	*	*	*tuplet	*	*	*	*	*
4%3r	.	8bn`L	mp >	8dd#X`L	mp >	8ee-X)	.	4%3r	4r	.	12cc]	.	.	12cc])	.	12f#XL	>	8bn')	.	2.aan)	>
.	.	.	.	.	.	.	.	.	.	.	[6ddn	-gel	.	12r	]	12f	.	.	.	.	.
.	.	8b-X`	.	8ddn`	.	8r	.	.	.	.	.	.	.	.	.	.	.	8r	.	.	.
!	!	!	!	!	!	!	!	!	!	!	!	!	!	!	!	!	!LO:DY:t=molto %s	!	!	!	!
.	.	.	.	.	.	.	.	.	.	.	.	.	.	12r	.	12gJ	p ]	.	.	.	]
.	.	8ddn`	.	8ff#X`	.	4r	.	.	4r	.	6dd]	.	.	4r	.	12a-XL	.	4r	.	.	<
.	.	.	.	.	.	.	.	.	.	.	.	.	.	.	.	12b-	.	.	.	.	.
.	.	8an`	.	8een`	.	.	.	.	.	.	.	.	.	.	.	.	.	.	.	.	.
.	.	.	.	.	.	.	.	.	.	.	[12een	Des	.	.	.	12ccJ	.	.	.	.	.
*	*	*	*	*	*	*	*	*	*tuplet	*	*	*	*	*	*	*	*	*	*	*	*
.	.	8bn`	.	8gg#X`	.	(4aan	ppp <	.	(36ffnLLL	p >	6.ee]	.	.	4r	.	12cc#XL	>	4r	.	.	[
!	!	!	!	!	!	!	!	!	!	!	!	!	!	!	!	!	!	!	!	!LO:TX:b:i:t=poco	!
.	.	.	.	.	.	.	.	.	36ggn	.	.	.	.	.	.	.	.	.	.	.	.
.	.	.	.	.	.	.	.	.	36aa-XJJ	.	.	.	.	.	.	.	.	.	.	.	.
.	.	.	.	.	.	.	.	.	36bb-XLL	.	.	.	.	.	.	12eeX	.	.	.	.	>
.	.	.	.	.	.	.	.	.	36cccn	.	.	.	.	.	.	.	.	.	.	.	.
.	.	8een`J	]	8ggn`J	]	.	.	.	.	.	.	.	.	.	.	.	.	.	.	.	.
!	!	!	!	!	!	!	!	!	!	!	!	!	!	!	!	!	!	!	!	!LO:TX:i:t=morendo	!
.	.	.	.	.	.	.	.	.	36ddd-XJJ	.	.	.	.	.	.	.	.	.	.	.	.
.	.	.	.	.	.	.	.	.	36eee-XLL	.	.	.	.	.	.	12bbXJ	.	.	.	.	.
.	.	.	.	.	.	.	.	.	36fffn	.	.	.	.	.	.	.	.	.	.	.	.
.	.	.	.	.	.	.	[[	.	36gggnJJJ	.	.	.	.	.	.	.	.	.	.	.	]
=5	=5	=5	=5	=5	=5	=5	=5	=5	=5	=5	=5	=5	=5	=5	=5	=5	=5	=5	=5	=5	=5
*	*	*	*	*	*	*haupt	*	*	*	*	*	*	*	*	*	*	*	*tuplet	*	*	*
!	!	!	!	!	!	!	!	!	!LO:TX:t=P:problem:cross-bar beaming	!	!	!	!	!	!	!	!	!	!	!	!
!	!	!LO:TX:a:t=arco	!	!LO:TX:a:t=arco	!	!LO:TX:a:t=(tutti)	!LO:DY:t=%s , ma espr.	!	!	!	!	!	!	!	!	!	!	!	!	!	!
4%3r	.	([4dddn	pp <	([4fffn	pp <	2ggg#X	pp <	4%3r	8aaa-XJ)	.	[6.ffn	Win-	.	8r	.	8ddd)	]]	12r	.	4r	.
*	*	*	*	*	*	*	*	*	*	*	*	*	*	*	*	*	*	*	*	*	*
!	!	!	!	!	!	!	!	!	!	!	!	!	!	!	!	!	!	!LO:TX:a:t=(Flzg.)	!	!	!
!	!	!	!	!	!	!	!	!	!	!	!	!	!	!	!	!	!	!LO:N:O=trem2	!	!	!
.	.	.	.	.	.	.	.	.	.	.	.	.	.	.	.	.	.	(12ggnOL	pp	.	.
.	.	.	.	.	.	.	.	.	.	.	.	.	.	.	.	.	.	.	.	.	.
!	!	!	!	!	!	!	!	!	!	!	!	!	!	!LO:TX:a:t=(con sord.) m. d. Gesang	!	!	!	!	!	!	!
.	.	.	.	.	.	.	.	.	8r	]	.	.	.	([8ff	p <	8r	.	.	.	.	.
.	.	.	.	.	.	.	.	.	.	.	.	.	.	.	.	.	.	.	.	.	.
!	!	!	!	!	!	!	!	!	!	!	!	!	!	!	!	!	!	!LO:N:O=trem2	!	!	!
.	.	.	.	.	.	.	.	.	.	.	.	.	.	.	.	.	.	12aanOJ	.	.	.
.	.	.	.	.	.	.	.	.	.	.	.	.	.	.	.	.	.	.	.	.	.
.	.	.	.	.	.	.	.	.	.	.	.	.	.	.	.	.	.	.	.	.	.
.	.	.	.	.	.	.	.	.	.	.	.	.	.	.	.	.	.	.	.	.	.
!	!	!	!	!	!	!	!	!	!	!	!	!	!	!	!	!	!	!LO:TUP:num=3	!	!	!
!	!	!	!	!	!	!	!	!	!	!	!	!	!	!	!	!	!	!LO:N:O=trem2	!	!	!
.	.	12dddL]	[	12fffL]	[	.	.	.	4r	.	12ff]	-des,	.	12ff]	.	4r	.	12bb-OXL	.	4r	.
.	.	.	.	.	.	.	.	.	.	.	.	.	.	.	.	.	.	.	.	.	.
.	.	.	.	.	.	.	.	.	.	.	.	.	.	.	.	.	.	.	.	.	.
.	.	.	.	.	.	.	.	.	.	.	.	.	.	.	[	.	.	.	.	.	.
!	!	!	!	!	!	!	!	!	!	!	!	!	!	!	!	!	!	!LO:N:O=trem2	!	!	!
.	.	12ccc#X	.	12eeen	.	.	.	.	.	.	[6een	.	.	[6eeN	.	.	.	12aan	.	.	.
.	.	.	.	.	.	.	.	.	.	.	.	.	.	.	.	.	.	.	.	.	.
.	.	.	.	.	.	.	.	.	.	.	.	.	.	.	.	.	.	.	.	.	.
.	.	.	.	.	.	.	.	.	.	.	.	.	.	.	.	.	.	.	.	.	.
!	!	!	!	!	!	!	!	!	!	!	!	!	!	!	!	!	!	!LO:N:O=trem2	!	!	!
.	.	12ggnJ	>	12cccnJ	>	.	[	.	.	.	.	.	.	.	.	.	.	12bb-OXJ	.	.	.
.	.	.	.	.	.	.	>	.	.	.	.	.	.	.	.	.	.	.	.	.	.
.	.	.	.	.	.	.	.	.	.	.	.	.	.	.	.	.	.	.	.	.	.
.	.	.	.	.	.	.	.	.	.	.	.	.	.	.	.	.	.	.	.	.	.
!	!	!	!	!	!	!	!	!	!	!	!	!	!	!	!	!	!	!LO:N:O=trem2	!	!	!
.	.	8ff#X)	.	8bbn)	.	4bbn,)	.	.	4r	.	6ee]	.	.	12eeL]	.	4r	.	12aan)	.	12r	.
.	.	.	.	.	.	.	.	.	.	.	.	.	.	.	.	.	.	.	.	.	.
.	.	.	.	.	.	.	.	.	.	.	.	.	.	.	.	.	.	.	.	.	.
.	.	.	.	.	.	.	.	.	.	.	.	.	.	.	.	.	.	.	.	.	.
!	!	!	!	!	!	!	!	!	!	!	!	!	!	!	!	!	!	!	!	!LO:TX:a:t=(Flzg.)	!
!	!	!	!	!	!	!	!	!	!	!	!	!	!	!	!	!	!	!	!	!LO:N:O=trem2	!
.	.	.	.	.	.	.	.	.	.	.	.	.	.	12ee-X	.	.	.	12r	.	(12anOL	p
.	.	.	.	.	.	.	.	.	.	.	.	.	.	.	.	.	.	.	.	.	.
.	.	8r	]	8r	]	.	.	.	.	.	.	.	.	.	.	.	.	.	.	.	.
.	.	.	.	.	.	.	.	.	.	.	.	.	.	.	.	.	.	.	.	.	.
!	!	!	!	!	!	!	!	!	!	!	!	!	!	!	!	!	!	!	!	!LO:N:O=trem2	!
.	.	.	.	.	.	.	.	.	.	.	[12ddn	der	.	12ddJ)	.	.	.	12r	.	12b-OXJ	.
.	.	.	.	.	.	.	.	.	.	.	.	.	.	.	.	.	.	.	.	.	.
.	.	.	.	.	.	.	.	.	.	.	.	.	.	.	.	.	.	.	.	.	.
.	.	.	.	.	.	.	]]	.	.	.	.	.	.	.	.	.	.	.	.	.	.
=6	=6	=6	=6	=6	=6	=6	=6	=6	=6	=6	=6	=6	=6	=6	=6	=6	=6	=6	=6	=6	=6
!	!	!	!	!	!	!	!	!	!	!	!	!	!	!LO:TX:a:t=Flzg.	!	!	!	!	!	!LO:TUP:num=3	!
!	!	!	!	!	!	!	!	!	!	!	!	!	!	!LO:N:O=trem2	!	!	!	!	!	!LO:N:O=trem2	!
4%3r	.	(2gg#X	<	(2ddd#X	<	(2ggg#X	<	4%3r	4%3r	.	6.dd]	.	.	(4ddLL	.	4%3r	.	4%3r	.	12ccnOL	.
.	.	.	.	.	.	.	.	.	.	.	.	.	.	.	.	.	.	.	.	.	.
.	.	.	.	.	.	.	.	.	.	.	.	.	.	.	.	.	.	.	.	.	.
.	.	.	.	.	.	.	.	.	.	.	.	.	.	.	.	.	.	.	.	.	.
!	!	!	!	!	!	!	!	!	!	!	!	!	!	!	!	!	!	!	!	!LO:N:O=trem2	!
.	.	.	.	.	.	.	.	.	.	.	.	.	.	.	.	.	.	.	.	12bnO	.
.	.	.	.	.	.	.	.	.	.	.	.	.	.	.	.	.	.	.	.	.	.
.	.	.	.	.	.	.	.	.	.	.	.	.	.	.	.	.	.	.	.	.	.
.	.	.	.	.	.	.	.	.	.	.	.	.	.	.	.	.	.	.	.	.	.
!	!	!	!	!	!	!	!	!	!	!	!	!	!	!	!	!	!	!	!	!LO:N:O=trem2	!
.	.	.	.	.	.	.	.	.	.	.	.	.	.	.	.	.	.	.	.	12anOJ	.
.	.	.	.	.	.	.	.	.	.	.	.	.	.	.	.	.	.	.	.	.	.
.	.	.	.	.	.	.	.	.	.	.	.	.	.	.	.	.	.	.	.	.	.
.	.	.	.	.	.	.	.	.	.	.	.	.	.	.	.	.	.	.	.	.	.
!	!	!	!	!	!	!	!	!	!	!	!	!	!	!	!	!	!	!	!	!LO:TUP:num=3	!
!	!	!	!	!	!	!	!	!	!	!	!	!	!	!LO:N:O=trem2	!	!	!	!	!	!LO:N:O=trem2	!
.	.	.	.	.	.	.	.	.	.	.	[6.ccn	eilt	.	4cc)N	.	.	.	.	.	12gnOL	.
.	.	.	.	.	.	.	.	.	.	.	.	.	.	.	.	.	.	.	.	.	.
.	.	.	.	.	.	.	.	.	.	.	.	.	.	.	.	.	.	.	.	.	.
.	.	.	.	.	.	.	.	.	.	.	.	.	.	.	.	.	.	.	.	.	.
!	!	!	!	!	!	!	!	!	!	!	!	!	!	!	!	!	!	!	!	!LO:N:O=trem2	!
.	.	.	.	.	.	.	.	.	.	.	.	.	.	.	.	.	.	.	.	12f#XO	.
.	.	.	.	.	.	.	.	.	.	.	.	.	.	.	.	.	.	.	.	.	.
.	.	.	[	.	[	.	[	.	.	.	.	.	.	.	.	.	.	.	.	.	.
.	.	.	.	.	.	.	.	.	.	.	.	.	.	.	.	.	.	.	.	.	.
!	!	!	!	!	!	!	!	!	!	!	!	!	!	!	!	!	!	!	!	!LO:N:O=trem2	!
.	.	.	>	.	>	.	>	.	.	.	.	.	.	.	.	.	.	.	.	12enOJ	.
.	.	.	.	.	.	.	.	.	.	.	.	.	.	.	.	.	.	.	.	.	.
.	.	.	.	.	.	.	.	.	.	.	.	.	.	.	.	.	.	.	.	.	.
.	.	.	.	.	.	.	.	.	.	.	.	.	.	.	.	.	.	.	.	.	.
!	!	!	!	!	!	!	!	!	!	!	!	!	!	!	!	!	!	!	!	!LO:TUP:num=3	!
!	!	!	!	!	!	!	!	!	!	!	!	!	!	!	!	!	!	!	!	!LO:N:O=trem2	!
.	.	[4g#X)	.	4ffn)	.	4bbn)	.	.	.	.	12cc]	.	.	12r	.	.	.	.	.	12dnOL	.
.	.	.	.	.	.	.	.	.	.	.	.	.	.	.	.	.	.	.	.	.	.
.	.	.	.	.	.	.	.	.	.	.	.	.	.	.	.	.	.	.	.	.	.
.	.	.	.	.	.	.	.	.	.	.	.	.	.	.	.	.	.	.	.	.	.
!	!	!	!	!	!	!	!	!	!	!	!	!	!	!LO:N:O=trem2	!	!	!	!	!	!LO:N:O=trem2	!
.	.	.	.	.	.	.	.	.	.	.	[6b-X	oh-	.	(>[6b-XN	.	.	.	.	.	12c#XO	.
.	.	.	.	.	.	.	.	.	.	.	.	.	.	.	.	.	.	.	.	.	.
.	.	.	.	.	.	.	.	.	.	.	.	.	.	.	.	.	.	.	.	.	.
.	.	.	.	.	.	.	.	.	.	.	.	.	.	.	.	.	.	.	.	.	.
!	!	!	!	!	!	!	!	!	!	!	!	!	!	!	!	!	!	!	!	!LO:N:O=trem2	!
.	.	.	.	.	.	.	.	.	.	.	.	.	.	.	.	.	.	.	.	12dnOJ	.
.	.	.	.	.	.	.	.	.	.	.	.	.	.	.	.	.	.	.	.	.	.
.	.	.	.	.	.	.	.	.	.	.	.	.	.	.	.	.	.	.	.	.	.
.	.	.	]]	.	]]	.	]]	.	.	.	.	.	.	.	.	.	.	.	.	.	.
=7	=7	=7	=7	=7	=7	=7	=7	=7	=7	=7	=7	=7	=7	=7	=7	=7	=7	=7	=7	=7	=7
*	*	*	*	*tremolo	*	*	*	*	*Xtuplet	*	*	*	*	*tuplet	*	*tuplet	*	*Xtuplet	*	*	*
*	*	*	*	*tuplet	*	*	*	*	*	*	*	*	*	*	*	*	*	*	*	*	*
!	!	!	!	!LO:TUP:r=6.	!	!	!	!	!	!	!	!	!	!	!	!	!	!	!	!	!
!	!	!	!	!LO:TUP:num=3	!	!	!	!	!	!	!	!	!	!LO:TX:t=P:problem:tremoli	!	!LO:TX:t=P:problem: tuplets	!	!	!	!	!
!	!	!	!	!	!	!	!	!	!	!	!	!	!	!LO:N:O=trem2	!	!LO:TUP:r=4	!	!	!	!	!
4%3r	.	8g#]	.	(48ff#XLLL	.	(4cccn	<	4%3r	4%3r	.	6b-X]	.	.	12b-L]	.	12r	.	4%3r	.	8e-X)	.
.	.	.	.	48ff#X	.	.	.	.	.	.	.	.	.	.	.	.	.	.	.	.	.
.	.	.	.	.	.	.	.	.	.	.	.	.	.	.	.	.	.	.	.	.	.
.	.	.	.	48ff#X	.	.	.	.	.	.	.	.	.	.	.	.	.	.	.	.	.
.	.	.	.	48ff#X	.	.	.	.	.	.	.	.	.	.	.	.	.	.	.	.	.
!	!	!	!	!	!	!	!	!	!	!	!	!	!	!LO:N:O=trem2	!	!	!	!	!	!	!
.	.	.	.	48een	.	.	.	.	.	.	.	.	.	12bX	.	12r	.	.	.	.	.
.	.	.	.	.	.	.	.	.	.	.	.	.	.	.	.	.	.	.	.	.	.
.	.	.	.	48een	.	.	.	.	.	.	.	.	.	.	.	.	.	.	.	.	.
.	.	8r	.	48een	.	.	.	.	.	.	.	.	.	.	.	.	.	.	.	8r	.
.	.	.	.	48een	.	.	.	.	.	.	.	.	.	.	.	.	.	.	.	.	.
!	!	!	!	!	!	!	!	!	!	!	!	!	!	!	!	!LO:TX:a:t=Flzg.	!	!	!	!	!
!	!	!	!	!	!	!	!	!	!	!	!	!	!	!LO:N:O=trem2	!	!LO:N:O=trem2	!	!	!	!	!
.	.	.	.	48ddn	.	.	.	.	.	.	[12a-X	-ne	.	12aJLL	.	(12eXO	p	.	.	.	.
.	.	.	.	48ddn	.	.	.	.	.	.	.	.	.	.	.	.	.	.	.	.	.
.	.	.	.	48ddn	.	.	.	.	.	.	.	.	.	.	.	.	.	.	.	.	.
.	.	.	.	48ddnJJJ	.	.	.	.	.	.	.	.	.	.	.	.	.	.	.	.	.
*	*	*	*	*Xtremolo	*	*	*	*	*	*	*	*	*	*	*	*	*	*	*	*	*
!	!	!	!	!	!	!	!	!	!	!	!	!	!	!	!	!LO:TUP:r=4	!	!	!	!	!
!	!	!	!	!	!	!	!	!	!	!	!	!	!	!LO:N:O=trem2	!	!LO:N:O=trem2	!	!	!	!	!
.	.	4r	.	[4ccn	.	8.dddn)	[ >	.	.	.	6.a-]	.	.	4a-X	.	12f#XOL	.	.	.	4r	.
.	.	.	.	.	.	.	.	.	.	.	.	.	.	.	.	.	.	.	.	.	.
.	.	.	.	.	.	.	.	.	.	.	.	.	.	.	.	.	.	.	.	.	.
!	!	!	!	!	!	!	!	!	!	!	!	!	!	!	!	!LO:N:O=trem2	!	!	!	!	!
.	.	.	.	.	.	.	.	.	.	.	.	.	.	.	.	12f#XO	.	.	.	.	.
.	.	.	.	.	.	.	.	.	.	.	.	.	.	.	.	.	.	.	.	.	.
.	.	.	.	.	.	.	.	.	.	.	.	.	.	.	.	.	.	.	.	.	.
.	.	.	.	.	.	.	.	.	.	.	.	.	.	.	.	.	.	.	.	.	.
.	.	.	.	.	.	.	.	.	.	.	.	.	.	.	.	.	.	.	.	.	.
!	!	!	!	!	!	!	!	!	!	!	!	!	!	!	!	!LO:N:O=trem2	!	!	!	!	!
.	.	.	.	.	.	.	.	.	.	.	.	.	.	.	.	12d#XOJ	.	.	.	.	.
.	.	.	.	.	.	16r	]	.	.	.	.	.	.	.	.	.	.	.	.	.	.
.	.	.	.	.	.	.	.	.	.	.	.	.	.	.	.	.	.	.	.	.	.
.	.	.	.	.	.	.	.	.	.	.	.	.	.	.	.	.	.	.	.	.	.
!	!	!	!	!	!	!	!	!	!	!	!	!	!	!	!	!LO:TUP:r=4	!	!	!	!	!
!	!	!	!	!	!	!	!	!	!	!	!	!	!	!LO:N:O=trem2	!	!LO:N:O=trem2	!	!	!	!	!
.	.	4r	.	12ccL]	.	([4eeen	< [	.	.	.	[6.gn	Zü-	.	[4g)	.	12c#XOL	.	.	.	4r	.
.	.	.	.	.	.	.	.	.	.	.	.	.	.	.	.	.	.	.	.	.	.
.	.	.	.	.	.	.	.	.	.	.	.	.	.	.	.	.	.	.	.	.	.
.	.	.	.	.	.	.	.	.	.	.	.	.	.	.	.	.	.	.	.	.	.
*	*	*	*	*tremolo	*	*	*	*	*	*	*	*	*	*	*	*	*	*	*	*	*
!	!	!	!	!LO:TX:T=P:problem:tremoli	!	!	!	!	!	!	!	!	!	!	!	!LO:N:O=trem2	!	!	!	!	!
.	.	.	.	48ddnJLLL	.	.	.	.	.	.	.	.	.	.	.	12cO	.	.	.	.	.
.	.	.	.	48ddn	.	.	.	.	.	.	.	.	.	.	.	.	.	.	.	.	.
.	.	.	.	48ddn	.	.	.	.	.	.	.	.	.	.	.	.	.	.	.	.	.
.	.	.	.	48ddn	.	.	.	.	.	.	.	.	.	.	.	.	.	.	.	.	.
!	!	!	!	!	!	!	!	!	!	!	!	!	!	!	!	!LO:N:O=trem2	!	!	!	!	!
.	.	.	.	48ee-X	.	.	.	.	.	.	.	.	.	.	.	12B-OJ)	.	.	.	.	.
.	.	.	.	48ee-X	.	.	.	.	.	.	.	.	.	.	.	.	.	.	.	.	.
.	.	.	.	48ee-X	.	.	.	.	.	.	.	.	.	.	.	.	.	.	.	.	.
.	.	.	.	48ee-X)JJJ	.	.	.	.	.	.	.	.	.	.	.	.	.	.	.	.	.
*	*	*	*	*	*	*	*	*	*	*	*	*	*	*	*	*	*	*	*	*	*
*	*	*	*	*Xtremolo	*	*	*	*	*	*	*	*	*	*	*	*	*	*	*	*	*
=	=	=	=	=	=	=	=	=	=	=	=	=	=	=	=	=	=	=	=	=	=
*-	*-	*-	*-	*-	*-	*-	*-	*-	*-	*-	*-	*-	*-	*-	*-	*-	*-	*-	*-	*-	*-
!!!system-decoration: [s1,s2,s3,s4,s5{(s6,s7)}s8,s9,s10,s11]
!!!RDF**kern: i = editorial accidental
!!!RDF**kern: > = above
!!!RDF**kern: < = below
!!!RDF**kern: N = hairpin accent
